X: 106
T:Fraher's
R:jig
E:11
M:6/8
L:1/8
Q:3/8=120
K:DMix
|A3 GED|~D3 GED|~A3 GEA|~D3 DEG|A3 GED|~D3 GED|ABA GEA|~D3 D3:|
ABA d2A|d2A AGE|GAB c2A|BGE E3|Add def|dcA AGE|ABA GEA|~D3 D3:|
